src/assets/images/textLogo.svg

<svg width="184" height="20" viewBox="0 0 184 20" fill="none" xmlns="http://www.w3.org/2000/svg">
<path d="M17.9381 5.448C17.9381 6.54933 17.6301 7.56667 17.0141 8.5C16.3981 9.43333 15.3808 10.1427 13.9621 10.628L17.2101 19H10.9661L8.50214 11.244H8.19414L6.54214 19H0.494141L4.27414 1.22H11.6381C12.4968 1.22 13.3088 1.276 14.0741 1.388C14.8395 1.48133 15.5021 1.68667 16.0621 2.004C16.6408 2.30267 17.0981 2.732 17.4341 3.292C17.7701 3.83333 17.9381 4.552 17.9381 5.448ZM9.87414 9.452C10.3595 9.452 10.7701 9.29333 11.1061 8.976C11.4608 8.64 11.7408 8.23867 11.9461 7.772C12.1701 7.30533 12.3288 6.81067 12.4221 6.288C12.5155 5.74667 12.5621 5.28 12.5621 4.888C12.5621 4.40267 12.4781 3.992 12.3101 3.656C12.1421 3.30133 11.7781 3.124 11.2181 3.124H9.95814L8.55814 9.452H9.87414ZM24.2609 19H18.2129L21.9929 1.22H28.0689L24.2609 19ZM33.3937 19H27.3457L31.1257 1.22H37.2017L33.3937 19ZM36.3945 16.452L45.6065 3.348H38.5505L38.9705 1.22H52.8025L52.5505 3.6L43.4225 16.872H50.7865L50.3945 19H35.8905L36.3945 16.452ZM55.7351 1.22H67.5231L67.0751 3.348H61.3631L60.1871 8.752H64.9751L64.5271 10.852H59.7391L58.4511 16.844H64.1631L63.7431 19H51.9551L55.7351 1.22ZM81.3365 10.88H88.5885L86.9645 19H83.6605L83.1285 17.208H83.0165C82.5312 17.768 81.9525 18.244 81.2805 18.636C80.6272 19.028 79.7685 19.224 78.7045 19.224C77.8832 19.224 77.0898 19.0933 76.3245 18.832C75.5778 18.552 74.9058 18.1227 74.3085 17.544C73.7298 16.9467 73.2632 16.172 72.9085 15.22C72.5538 14.268 72.3765 13.12 72.3765 11.776C72.3765 10.32 72.6005 8.93867 73.0485 7.632C73.4965 6.32533 74.1685 5.17733 75.0645 4.188C75.9605 3.18 77.0805 2.38667 78.4245 1.808C79.7685 1.22933 81.3365 0.939999 83.1285 0.939999C84.5098 0.939999 85.7138 1.09867 86.7405 1.416C87.7672 1.73333 88.7378 2.088 89.6525 2.48L88.5885 7.912H83.8565C83.8752 7.70667 83.9032 7.464 83.9405 7.184C83.9778 6.904 84.0058 6.61467 84.0245 6.316C84.0432 5.99867 84.0618 5.69067 84.0805 5.392C84.0992 5.09333 84.1085 4.832 84.1085 4.608C84.1085 4.45867 84.0992 4.29067 84.0805 4.104C84.0618 3.89867 84.0152 3.70267 83.9405 3.516C83.8658 3.32933 83.7538 3.18 83.6045 3.068C83.4552 2.93733 83.2405 2.872 82.9605 2.872C82.4752 2.872 82.0272 3.07733 81.6165 3.488C81.2245 3.88 80.8698 4.412 80.5525 5.084C80.2352 5.73733 79.9552 6.484 79.7125 7.324C79.4885 8.164 79.2925 9.02267 79.1245 9.9C78.9752 10.7587 78.8538 11.608 78.7605 12.448C78.6858 13.2693 78.6485 13.988 78.6485 14.604C78.6485 14.7907 78.6578 15.024 78.6765 15.304C78.6952 15.584 78.7512 15.864 78.8445 16.144C78.9565 16.4053 79.1058 16.6387 79.2925 16.844C79.4978 17.0307 79.7872 17.124 80.1605 17.124C80.7765 17.124 81.3738 16.788 81.9525 16.116C82.5312 15.444 82.9698 14.324 83.2685 12.756H80.9165L81.3365 10.88ZM104.873 19H98.3213L97.9293 14.548H92.7493L90.7613 19H88.0453L96.3053 1.22H102.941L104.873 19ZM93.6733 12.504H97.7333L97.0893 4.888L93.6733 12.504ZM126.757 19H120.541L123.117 6.904L116.481 19H112.673L111.413 6.484L108.725 19H106.205L109.985 1.22H117.125L117.993 11.244L123.369 1.22H130.565L126.757 19ZM133.61 1.22H145.398L144.95 3.348H139.238L138.062 8.752H142.85L142.402 10.852H137.614L136.326 16.844H142.038L141.618 19H129.83L133.61 1.22ZM145.928 4.104C147.085 3.936 148.131 3.59067 149.064 3.068C150.016 2.54533 150.772 1.92933 151.332 1.22H155.616L151.808 19H145.76L148.532 5.98H145.508L145.928 4.104ZM157.057 4.104C158.214 3.936 159.26 3.59067 160.193 3.068C161.145 2.54533 161.901 1.92933 162.461 1.22H166.745L162.937 19H156.889L159.661 5.98H156.637L157.057 4.104ZM172.778 19.224C172.442 19.224 172.022 19.2053 171.518 19.168C171.014 19.1493 170.491 19.0933 169.95 19C169.409 18.9253 168.877 18.8227 168.354 18.692C167.85 18.5427 167.402 18.356 167.01 18.132L167.934 14.212H172.246C172.246 14.3427 172.237 14.5107 172.218 14.716C172.218 14.9213 172.218 15.136 172.218 15.36C172.218 15.584 172.227 15.8173 172.246 16.06C172.283 16.284 172.33 16.4893 172.386 16.676C172.461 16.8627 172.563 17.0213 172.694 17.152C172.843 17.264 173.03 17.32 173.254 17.32C173.87 17.32 174.486 16.8067 175.102 15.78C175.718 14.7347 176.213 13.0453 176.586 10.712H176.306C175.765 11.3093 175.102 11.7667 174.318 12.084C173.534 12.3827 172.722 12.532 171.882 12.532C171.154 12.532 170.529 12.42 170.006 12.196C169.502 11.9533 169.082 11.6267 168.746 11.216C168.429 10.8053 168.195 10.32 168.046 9.76C167.897 9.18133 167.822 8.556 167.822 7.884C167.822 6.652 168.037 5.59733 168.466 4.72C168.914 3.84267 169.511 3.124 170.258 2.564C171.005 2.004 171.873 1.59333 172.862 1.332C173.87 1.07067 174.934 0.939999 176.054 0.939999C177.081 0.939999 178.014 1.06133 178.854 1.304C179.713 1.528 180.45 1.92 181.066 2.48C181.682 3.02133 182.158 3.74933 182.494 4.664C182.849 5.57867 183.026 6.71733 183.026 8.08C183.026 9.46133 182.83 10.824 182.438 12.168C182.065 13.4933 181.458 14.6787 180.618 15.724C179.797 16.7693 178.733 17.6187 177.426 18.272C176.138 18.9067 174.589 19.224 172.778 19.224ZM176.362 2.872C175.895 2.872 175.494 3.068 175.158 3.46C174.841 3.852 174.57 4.33733 174.346 4.916C174.141 5.476 173.991 6.08267 173.898 6.736C173.805 7.38933 173.758 7.968 173.758 8.472C173.758 8.92 173.805 9.26533 173.898 9.508C174.01 9.732 174.253 9.844 174.626 9.844C175.13 9.844 175.559 9.648 175.914 9.256C176.269 8.84533 176.558 8.36 176.782 7.8C177.006 7.24 177.174 6.66133 177.286 6.064C177.398 5.448 177.454 4.93467 177.454 4.524C177.454 4.03867 177.37 3.64667 177.202 3.348C177.034 3.03067 176.754 2.872 176.362 2.872Z" fill="white"/>
</svg>

<svg xmlns="http://www.w3.org/2000/svg" width="184" height="20" fill="none"><path fill="#fff" d="M17.938 5.448a5.43 5.43 0 0 1-.924 3.052c-.616.933-1.633 1.643-3.052 2.128L17.21 19h-6.244l-2.464-7.756h-.308L6.542 19H.494l3.78-17.78h7.364c.859 0 1.67.056 2.436.168.765.093 1.428.299 1.988.616a3.377 3.377 0 0 1 1.372 1.288c.336.541.504 1.26.504 2.156ZM9.874 9.452c.486 0 .896-.159 1.232-.476.355-.336.635-.737.84-1.204.224-.467.383-.961.476-1.484.093-.541.14-1.008.14-1.4 0-.485-.084-.896-.252-1.232-.168-.355-.532-.532-1.092-.532h-1.26l-1.4 6.328h1.316ZM24.261 19h-6.048l3.78-17.78h6.076L24.26 19Zm9.133 0h-6.048l3.78-17.78h6.076L33.394 19Zm3-2.548 9.212-13.104H38.55l.42-2.128h13.833L52.55 3.6l-9.129 13.272h7.364L50.394 19H35.892l.504-2.548ZM55.736 1.22h11.788l-.448 2.128h-5.712l-1.176 5.404h4.788l-.448 2.1H59.74l-1.288 5.992h5.712L63.743 19H51.955l3.78-17.78Zm25.602 9.66h7.251L86.965 19H83.66l-.531-1.792h-.113a6.827 6.827 0 0 1-1.736 1.428c-.653.392-1.511.588-2.576.588-.82 0-1.614-.13-2.38-.392a5.805 5.805 0 0 1-2.016-1.288c-.578-.597-1.045-1.372-1.4-2.324-.354-.952-.532-2.1-.532-3.444 0-1.456.224-2.837.672-4.144a9.807 9.807 0 0 1 2.016-3.444c.897-1.008 2.017-1.801 3.36-2.38 1.344-.579 2.912-.868 4.704-.868 1.382 0 2.586.159 3.612.476a29.52 29.52 0 0 1 2.913 1.064l-1.065 5.432h-4.731c.018-.205.046-.448.084-.728.037-.28.065-.57.084-.868l.055-.924c.02-.299.029-.56.029-.784 0-.15-.01-.317-.028-.504a2.082 2.082 0 0 0-.14-.588 1.02 1.02 0 0 0-.337-.448c-.149-.13-.364-.196-.644-.196-.485 0-.933.205-1.343.616-.392.392-.747.924-1.065 1.596-.317.653-.597 1.4-.84 2.24-.224.84-.42 1.699-.588 2.576-.149.859-.27 1.708-.364 2.548-.074.821-.112 1.54-.112 2.156 0 .187.01.42.029.7.018.28.074.56.167.84.113.261.262.495.449.7.205.187.494.28.867.28.617 0 1.214-.336 1.793-1.008.578-.672 1.017-1.792 1.316-3.36h-2.353l.42-1.876ZM104.873 19h-6.552l-.392-4.452h-5.18L90.761 19h-2.716l8.26-17.78h6.636L104.873 19Zm-11.2-6.496h4.06l-.644-7.616-3.416 7.616ZM126.757 19h-6.216l2.576-12.096L116.481 19h-3.808l-1.26-12.516L108.725 19h-2.52l3.78-17.78h7.14l.868 10.024 5.376-10.024h7.196L126.757 19Zm6.853-17.78h11.788l-.448 2.128h-5.712l-1.176 5.404h4.788l-.448 2.1h-4.788l-1.288 5.992h5.712l-.42 2.156H129.83l3.78-17.78Zm12.318 2.884c1.157-.168 2.203-.513 3.136-1.036.952-.523 1.708-1.139 2.268-1.848h4.284L151.808 19h-6.048l2.772-13.02h-3.024l.42-1.876Zm11.129 0c1.157-.168 2.203-.513 3.136-1.036.952-.523 1.708-1.139 2.268-1.848h4.284L162.937 19h-6.048l2.772-13.02h-3.024l.42-1.876Zm15.721 15.12c-.336 0-.756-.019-1.26-.056A11.81 11.81 0 0 1 169.95 19a15.092 15.092 0 0 1-1.596-.308 6.32 6.32 0 0 1-1.344-.56l.924-3.92h4.312c0 .13-.009.299-.028.504v.644c0 .224.009.457.028.7.037.224.084.43.14.616.075.187.177.345.308.476a.906.906 0 0 0 .56.168c.616 0 1.232-.513 1.848-1.54.616-1.045 1.111-2.735 1.484-5.068h-.28a5.346 5.346 0 0 1-1.988 1.372 6.786 6.786 0 0 1-2.436.448c-.728 0-1.353-.112-1.876-.336a3.646 3.646 0 0 1-1.26-.98 4.063 4.063 0 0 1-.7-1.456 7.506 7.506 0 0 1-.224-1.876c0-1.232.215-2.287.644-3.164a6.134 6.134 0 0 1 1.792-2.156c.747-.56 1.615-.97 2.604-1.232a12.674 12.674 0 0 1 3.192-.392c1.027 0 1.96.121 2.8.364a5.169 5.169 0 0 1 2.212 1.176c.616.541 1.092 1.27 1.428 2.184.355.915.532 2.053.532 3.416a14.53 14.53 0 0 1-.588 4.088 9.892 9.892 0 0 1-1.82 3.556c-.821 1.045-1.885 1.895-3.192 2.548-1.288.635-2.837.952-4.648.952Zm3.584-16.352c-.467 0-.868.196-1.204.588-.317.392-.588.877-.812 1.456a8.954 8.954 0 0 0-.448 1.82c-.093.653-.14 1.232-.14 1.736 0 .448.047.793.14 1.036.112.224.355.336.728.336.504 0 .933-.196 1.288-.588a5.1 5.1 0 0 0 .868-1.456c.224-.56.392-1.139.504-1.736.112-.616.168-1.13.168-1.54 0-.485-.084-.877-.252-1.176-.168-.317-.448-.476-.84-.476Z"/></svg>
